packages/calcite-ui-icons/icons/security-camera-16.svg

<?xml version="1.0" encoding="UTF-8"?><svg id="icons" xmlns="http://www.w3.org/2000/svg" viewBox="0 0 16 16"><defs><style>.cls-1{fill:none;}.cls-2{fill:#231f20;}</style></defs><rect class="cls-1" width="16" height="16"/><path class="cls-2" d="M15,12h-2v-1h.23669c.96649,0,1.75-1.79089,1.75-4h.81311c.11053,0,.2002-.0896.2002-.2002,0-2.09857,0-4.7998-2.02655-4.7998-.08624,0-11.95581-.00549-11.94672,0C.34637,2.20568-.21905,5.31075.1015,7h1.89886c0,.00226-.00037.00439-.00037.00665,0,2.02283.77869,3.73041,2,3.99335h4v1.38763c0,.3382.27417.61237.61237.61237h.38763v2.29291c0,.3905.31659.70709.70709.70709h1.58582c.3905,0,.70709-.31659.70709-.70709v-.29291h3v1h1v-5h-1v1ZM13.97363,3c.75879,0,.97754,1.08691,1.01855,3H6.03467c-.37231-1.11485-1.11927-2.25465-1.88452-3h9.82349ZM1.02325,6c.00098-1.27002.40558-2.70239.99554-2.94977.35498-.14886.80835.07196,1.26562.4823-.58655.52002-1.01935,1.40863-1.19379,2.46747h-1.06738ZM3,7.00684c0-1.30579.43335-2.31464.94604-2.75275.19751.2558.38232.53418.55396.82483v.03046c-.2002.25586-.5.8877-.5,1.89746s.2998,1.6416.5,1.89746c.2002-.25586.5-.8877.5-1.89746,0-.00085-.00018-.0014-.00018-.00226l.99969-.00458c0,.00238.00049.00446.00049.00684,0,1.76447-.79004,2.99316-1.5,2.99316s-1.5-1.2287-1.5-2.99316ZM9,11h1v-1h-3.86096c.5235-.73193.86096-1.80139.86096-3,0-.00232,6.98608,0,6.98608,0,0,.00238.01392,2-.76538,3h-1.2207v2h-3v-1ZM10,15.00958v-2.00958h1v2.00958h-1ZM15,14.00958h-3v-1.00958h3v1.00958Z"/></svg>

<svg xmlns="http://www.w3.org/2000/svg" viewBox="0 0 16 16"><path d="M0 0h16v16H0z" style="fill:none"/><path d="M15 12h-2v-1h.237c.966 0 1.75-1.79 1.75-4h.813a.2.2 0 0 0 .2-.2C16 4.7 16 2 13.973 2c-.086 0-11.955-.005-11.946 0C.347 2.206-.22 5.31.1 7H2v.007c0 2.022.779 3.73 2 3.993h4v1.388c0 .338.274.612.612.612H9v2.293c0 .39.317.707.707.707h1.586c.39 0 .707-.317.707-.707V15h3v1h1v-5h-1zm-1.026-9c.758 0 .977 1.087 1.018 3H6.035c-.373-1.115-1.12-2.255-1.885-3zM1.024 6c0-1.27.405-2.702.995-2.95.355-.149.808.072 1.265.483C2.698 4.053 2.265 4.94 2.091 6zM3 7.007c0-1.306.433-2.315.946-2.753.198.256.382.534.554.825v.03c-.2.256-.5.888-.5 1.898s.3 1.641.5 1.897c.2-.256.5-.887.5-1.897v-.002L6 7v.007C6 8.77 5.21 10 4.5 10S3 8.771 3 7.007M9 11h1v-1H6.139C6.663 9.268 7 8.199 7 7c0-.002 6.986 0 6.986 0 0 .002.014 2-.765 3H12v2H9zm1 4.01V13h1v2.01zm5-1h-3V13h3z" style="fill:#231f20"/></svg>
